icon/ir/face-id.svg

<svg stroke-width="1.5" viewBox="0 0 24 24" fill="none" xmlns="http://www.w3.org/2000/svg" height="1em" width="1em">
  <path d="M7 3H5C3.89543 3 3 3.89543 3 5V7" stroke="currentColor" stroke-linecap="round" stroke-linejoin="round"/>
  <path d="M17 3H19C20.1046 3 21 3.89543 21 5V7" stroke="currentColor" stroke-linecap="round" stroke-linejoin="round"/>
  <path d="M16 8L16 10" stroke="currentColor" stroke-linecap="round" stroke-linejoin="round"/>
  <path d="M8 8L8 10" stroke="currentColor" stroke-linecap="round" stroke-linejoin="round"/>
  <path d="M9 16C9 16 10 17 12 17C14 17 15 16 15 16" stroke="currentColor" stroke-linecap="round" stroke-linejoin="round"/>
  <path d="M12 8L12 13L11 13" stroke="currentColor" stroke-linecap="round" stroke-linejoin="round"/>
  <path d="M7 21H5C3.89543 21 3 20.1046 3 19V17" stroke="currentColor" stroke-linecap="round" stroke-linejoin="round"/>
  <path d="M17 21H19C20.1046 21 21 20.1046 21 19V17" stroke="currentColor" stroke-linecap="round" stroke-linejoin="round"/>
</svg>

<svg width="24" height="24" stroke-width="1.5" fill="none" xmlns="http://www.w3.org/2000/svg"><path d="M7 3H5a2 2 0 0 0-2 2v2M17 3h2a2 2 0 0 1 2 2v2M16 8v2M8 8v2M9 16s1 1 3 1 3-1 3-1M12 8v5h-1M7 21H5a2 2 0 0 1-2-2v-2M17 21h2a2 2 0 0 0 2-2v-2" stroke="currentColor" stroke-linecap="round" stroke-linejoin="round"/></svg>
